svg/fluentui-system-icons/ic_fluent_chat_12_filled.svg

<svg width="12" height="12" viewBox="0 0 12 12" fill="none" xmlns="http://www.w3.org/2000/svg">
<path d="M1.00001 6C1.00001 3.23858 3.23859 1 6.00001 1C8.76144 1 11 3.23858 11 6C11 8.76142 8.76144 11 6.00001 11C5.12733 11 4.30568 10.776 3.59074 10.3822L1.64559 10.9742C1.46894 11.028 1.27703 10.98 1.14646 10.8494C1.01589 10.7189 0.967911 10.5269 1.02168 10.3503L1.61434 8.40297C1.22268 7.68951 1.00001 6.87012 1.00001 6ZM4 5.5C4 5.77614 4.22386 6 4.5 6H7.5C7.77614 6 8 5.77614 8 5.5C8 5.22386 7.77614 5 7.5 5H4.5C4.22386 5 4 5.22386 4 5.5ZM4.5 7C4.22386 7 4 7.22386 4 7.5C4 7.77614 4.22386 8 4.5 8H6.5C6.77614 8 7 7.77614 7 7.5C7 7.22386 6.77614 7 6.5 7H4.5Z" fill="#212121"/>
</svg>

<svg xmlns="http://www.w3.org/2000/svg" width="12" height="12"><path d="M1 6a5 5 0 1 1 2.59 4.382l-1.944.592a.5.5 0 0 1-.624-.624l.592-1.947A4.98 4.98 0 0 1 1 6Zm3-.5a.5.5 0 0 0 .5.5h3a.5.5 0 0 0 0-1h-3a.5.5 0 0 0-.5.5ZM4.5 7a.5.5 0 0 0 0 1h2a.5.5 0 0 0 0-1h-2Z"/></svg>
